packages/dnb-ui-lib/assets/icons/log_out_medium.svg

<svg width="24" height="24" viewBox="0 0 24 24" fill="none" xmlns="http://www.w3.org/2000/svg">
<path d="M17.0667 18.6005V20.0671C17.0667 20.4561 16.9121 20.8292 16.6371 21.1042C16.362 21.3793 15.989 21.5338 15.6 21.5338H14.2M14.2 3.93392H15.6C15.989 3.93392 16.362 4.08844 16.6371 4.36349C16.9121 4.63854 17.0667 5.01159 17.0667 5.40058V6.86723M20.0667 9.79957L23 12.7329M23 12.7329H14.9333M23 12.7329L20.0667 15.6662M7.96667 11.6339C7.89399 11.6339 7.82294 11.6555 7.76256 11.6959C7.70218 11.7364 7.65519 11.7939 7.62756 11.8611C7.59992 11.9284 7.59289 12.0023 7.60736 12.0735C7.62183 12.1447 7.65714 12.2101 7.70881 12.2612C7.76048 12.3123 7.82618 12.3469 7.89756 12.3606C7.96895 12.3743 8.04279 12.3665 8.10972 12.3382C8.17665 12.3098 8.23364 12.2622 8.27345 12.2014C8.31327 12.1406 8.33411 12.0693 8.33334 11.9966C8.33347 11.9484 8.32407 11.9007 8.30569 11.8562C8.28731 11.8116 8.2603 11.7711 8.22623 11.7371C8.19216 11.703 8.15168 11.676 8.10714 11.6576C8.0626 11.6392 8.01486 11.6298 7.96667 11.63M10.4297 22.9926L1.62969 21.7352C1.45492 21.7105 1.29497 21.6234 1.17927 21.4901C1.06357 21.3568 0.999907 21.1862 1 21.0097V3.90556C0.999862 3.73763 1.05737 3.57474 1.1629 3.44411C1.26844 3.31348 1.41561 3.22303 1.57982 3.18788L10.3798 1.01625C10.4868 0.99335 10.5975 0.99467 10.7039 1.02011C10.8103 1.04555 10.9096 1.09447 10.9947 1.16328C11.0797 1.23209 11.1482 1.31905 11.1953 1.41779C11.2424 1.51653 11.2668 1.62455 11.2667 1.73393V22.2671C11.2666 22.3722 11.244 22.4759 11.2003 22.5715C11.1567 22.667 11.093 22.752 11.0137 22.8208C10.9343 22.8896 10.8411 22.9405 10.7403 22.9702C10.6396 22.9998 10.5337 23.0075 10.4297 22.9926Z" stroke="black" stroke-width="1.5" stroke-linecap="round" stroke-linejoin="round"/>
</svg>

<svg width="24" height="24" viewBox="0 0 24 24" fill="none" xmlns="http://www.w3.org/2000/svg"><path d="M17.067 18.6v1.467a1.467 1.467 0 01-1.467 1.467h-1.4m0-17.6h1.4A1.467 1.467 0 0117.067 5.4v1.466m3 2.933L23 12.733m0 0h-8.067m8.067 0l-2.933 2.933m-12.1-4.032a.367.367 0 10.339.222.364.364 0 00-.34-.226m2.464 11.363l-8.8-1.258A.732.732 0 011 21.01V3.906a.733.733 0 01.58-.718l8.8-2.172a.733.733 0 01.887.718v20.533a.733.733 0 01-.837.726z" stroke="#000" stroke-width="1.5" stroke-linecap="round" stroke-linejoin="round"/></svg>
